!! J.S. Bach "Loure" from Partita No. 3, solo violin, BWV 1006.
!! From 'Neue Ausgabe Saemtlicher Werke' Serie VI: Kammermusikwerke,
!! Band 1 ('Werke fuer Violine') Baerenreiter Kassel (Basel) 1958; p.58
!! This work has been error-checked using the double-entry method.
!! NOTE: The repeats at bar 11 and at the end of the movement have
!!       been expanded in this encoding.
!! NOTE: The 'monophonic' score has been expanded to a three-voice
!!       format to simplify the encoding of multiple stops.
**kern	**kern	**kern
*M6/4	*M6/4	*M6/4
4.r	4.r	8b
.	.	4bb
=1	=1	=1
1.r	2.r	4.gg#
.	.	8aa
.	.	4ff#T
.	4.r	4gg#
.	.	4ee
.	8e	.
.	4ee	4gg#
=2	=2	=2
1.r	4.dd#	4.ff#
.	8ee	8gg#
.	4cc#	4aa
.	4b	{8aa
.	.	8ff#}
.	4r	4dd#T
.	4g#	4ee
=3	=3	=3
1.r	2a	4.cc#
.	.	8dd#
.	4g#	4ee
.	2f#	4.a
.	.	8g#
.	4B	4a
=4	=4	=4
1.r	4e	{4a
.	2r	8.g#}
.	.	16a
.	.	4f#
.	2.r	{8a
.	.	8g#}
.	.	{8f#
.	.	8e}
.	.	4gg#
=5	=5	=5
1.r	2r	4.cc#
.	.	8dd#
.	4f#	4b#
.	4e	4cc#
.	2r	4gg#
.	.	{8ff#
.	.	8ee}
=6	=6	=6
1.r	2r	{4dd#
.	.	8.cc#}
.	.	16dd#
.	4e#	4bn
.	4f#	{4b
.	4r	8.a#}
.	.	16cc#
.	4f#	4dd#
=7	=7	=7
1.r	2g#	{4dd#
.	.	8.ee}
.	.	16gg#
.	4a#	4ff#
.	2b	{4ff#
.	.	8.gg#}
.	.	16bb
.	4cc#	4aa#
=8	=8	=8
1.r	4dd#	4bb
.	4ee	{8aa#
.	.	8gg#}
.	4cc#	{16aa#
.	.	16bb
.	.	8ccc#}
.	4ff#	4aa#
.	2r	{8gg#
.	.	8ff#}
.	.	4ccc#
=9	=9	=9
2.r	2r	4.ee
.	.	8ff#
.	4f#	4dd#
4A#	4f#	{8ee
.	.	8dd#
2r	2r	4ee}
.	.	4ccc#
=10	=10	=10
2r	2r	{16bb
.	.	8.aa#}
.	.	{16gg#
.	.	8ff#}
.	.	16dd#
4A#	4f#	4ee
4B	4f#	{4ee
2r	4r	8.dd#}
.	.	16ff#
.	4e	4a#
=11	=11	=11
2.r	2r	{12f#
.	.	12a#
.	.	12cc#}
.	.	4ee
.	4f#	{12dd#
.	.	12ee
.	.	12cc#}
4.B	4.f#	4.b
4.r	4.r	8b
.	.	4bb
=12	=12	=12
1.r	2.r	4.gg#
.	.	8aa
.	.	4ff#T
.	4.r	4gg#
.	.	4ee
.	8e	.
.	4ee	4gg#
=13	=13	=13
1.r	4.dd#	4.ff#
.	8ee	8gg#
.	4cc#	4aa
.	4b	{8aa
.	.	8ff#}
.	4r	4dd#T
.	4g#	4ee
=14	=14	=14
1.r	2a	4.cc#
.	.	8dd#
.	4g#	4ee
.	2f#	4.a
.	.	8g#
.	4B	4a
=15	=15	=15
1.r	4e	{4a
.	2r	8.g#}
.	.	16a
.	.	4f#
.	2.r	{8a
.	.	8g#}
.	.	{8f#
.	.	8e}
.	.	4gg#
=16	=16	=16
1.r	2r	4.cc#
.	.	8dd#
.	4f#	4b#
.	4e	4cc#
.	2r	4gg#
.	.	{8ff#
.	.	8ee}
=17	=17	=17
1.r	2r	{4dd#
.	.	8.cc#}
.	.	16dd#
.	4e#	4bn
.	4f#	{4b
.	4r	8.a#}
.	.	16cc#
.	4f#	4dd#
=18	=18	=18
1.r	2g#	{4dd#
.	.	8.ee}
.	.	16gg#
.	4a#	4ff#
.	2b	{4ff#
.	.	8.gg#}
.	.	16bb
.	4cc#	4aa#
=19	=19	=19
1.r	4dd#	4bb
.	4ee	{8aa#
.	.	8gg#}
.	4cc#	{16aa#
.	.	16bb
.	.	8ccc#}
.	4ff#	4aa#
.	2r	{8gg#
.	.	8ff#}
.	.	4ccc#
=20	=20	=20
2.r	2r	4.ee
.	.	8ff#
.	4f#	4dd#
4A#	4f#	{8ee
.	.	8dd#
2r	2r	4ee}
.	.	4ccc#
=21	=21	=21
2r	2r	{16bb
.	.	8.aa#}
.	.	{16gg#
.	.	8ff#}
.	.	16dd#
4A#	4f#	4ee
4B	4f#	{4ee
2r	4r	8.dd#}
.	.	16ff#
.	4e	4a#
=22	=22	=22
2.r	2r	{12f#
.	.	12a#
.	.	12cc#}
.	.	4ee
.	4f#	{12dd#
.	.	12ee
.	.	12cc#}
4.B	4.f#	4.b
4.r	4.r	8ff#
.	.	4gg#
=23	=23	=23
1.r	4.r	4.aa
.	8cc#	8bb
.	4dd#	4aa
.	4.ee	4gg#T
.	.	8ff#
.	8ddn	8ee
.	4cc#	4aa
=24	=24	=24
1.r	4ddn	4.ff#
.	4cc#	.
.	.	8ff#
.	4b	{8aa
.	.	8gg#}
.	4cc#	{8ff#
.	.	8ee#
.	2r	8dd#
.	.	8cc#}
.	.	4bb
=25	=25	=25
4.e#	4.cc#	4.bb
4.r	4.r	8aa
.	.	{16gg#T
.	.	16ff#
.	.	8gg#}
4f#	4cc#	4aa
2r	4ddn	4ff#
.	4b	{8gg#
.	.	8aa}
=26	=26	=26
2.r	2cc#	{4ff#
.	.	4ee#T}
.	4r	4ff#
4.f#	4.a	4.ff#
4.r	4.r	8gg#
.	.	4aa
=27	=27	=27
2.r	2r	4.dd#T
.	.	8cc#
.	4a	4b
4.g#	4.b	4.een
8r	8r	8ff#
4e	4b	4gg#
=28	=28	=28
4a	4cc#	{4gg#
4r	4r	8.ff#}
.	.	16gg#
4f#	4cc#	4aa
2.r	2b#	{4aa
.	.	8.gg#}
.	.	16ff#
.	4cc#	4ee
=29	=29	=29
2.r	4f#	4.dd#
.	4g#	.
.	.	8ee
.	4a	4cc#
4.g#	4.b#	4.gg#
4.r	4.r	8dd#
.	.	4bbn
=30	=30	=30
2.r	2cc#	{4bb
.	.	8.aa#}
.	.	16ccc#
.	4r	4ff##
2r	4.f##	{4een
.	.	8.dd#}
.	8r	.
.	.	16ccc#
4g#	4dd#	4bb
=31	=31	=31
2.r	4cc#	{8bb
.	.	8aa#}
.	4dd#	{8bb
.	.	8aa#}
.	4r	8gg#
.	.	{16aa#
.	.	16ff##}
4.g#	4.b	4.gg#
4.r	4.r	{16gg#
.	.	16aan
.	.	8.aaT
.	.	32gg#
.	.	32aa}
=32	=32	=32
2r	2r	4.bb
.	.	8aa
4e#	4cc#	4gg#
4f#	4cc#	4aa
4r	4r	8gg#
.	.	8ff#
4en	4cc#	4aa
=33	=33	=33
8d#	2r	{8b
4.r	.	8dd#
.	.	8ff#}
.	.	8bb
4e	4b	8aa
.	.	8gg#
2.r	4.b	{4gg#
.	.	8.ff#}
.	8r	.
.	.	16b
.	4r	{8.cc#T
.	.	32b
.	.	32cc#}
=34	=34	=34
1.r	4.r	4.ddn
.	8f#	8ee
.	4g#	4dd#
.	4a	4cc#
.	4f#	{8cc#
.	.	[8dd#
.	4e	8dd#}]
.	.	8ee
=35	=35	=35
2B	2f#	{4ee
.	.	4dd#T}
4r	4r	4ee
4.r	4.e	4.ee
4.r	4.r	8ff#
.	.	4gg#
=36	=36	=36
1.r	4.r	4.aa
.	8cc#	8bb
.	4dd#	4aa
.	4.ee	4gg#T
.	.	8ff#
.	8ddn	8ee
.	4cc#	4aa
=37	=37	=37
1.r	4ddn	4.ff#
.	4cc#	.
.	.	8ff#
.	4b	{8aa
.	.	8gg#}
.	4cc#	{8ff#
.	.	8ee#
.	2r	8dd#
.	.	8cc#}
.	.	4bb
=38	=38	=38
4.e#	4.cc#	4.bb
4.r	4.r	8aa
.	.	{16gg#T
.	.	16ff#
.	.	8gg#}
4f#	4cc#	4aa
2r	4ddn	4ff#
.	4b	{8gg#
.	.	8aa}
=39	=39	=39
2.r	2cc#	{4ff#
.	.	4ee#T}
.	4r	4ff#
4.f#	4.a	4.ff#
4.r	4.r	8gg#
.	.	4aa
=40	=40	=40
2.r	2r	4.dd#T
.	.	8cc#
.	4a	4b
4.g#	4.b	4.een
8r	8r	8ff#
4e	4b	4gg#
=41	=41	=41
4a	4cc#	{4gg#
4r	4r	8.ff#}
.	.	16gg#
4f#	4cc#	4aa
2.r	2b#	{4aa
.	.	8.gg#}
.	.	16ff#
.	4cc#	4ee
=42	=42	=42
2.r	4f#	4.dd#
.	4g#	.
.	.	8ee
.	4a	4cc#
4.g#	4.b#	4.gg#
4.r	4.r	8dd#
.	.	4bbn
=43	=43	=43
2.r	2cc#	{4bb
.	.	8.aa#}
.	.	16ccc#
.	4r	4ff##
2r	4.f##	{4een
.	.	8.dd#}
.	8r	.
.	.	16ccc#
4g#	4dd#	4bb
=44	=44	=44
2.r	4cc#	{8bb
.	.	8aa#}
.	4dd#	{8bb
.	.	8aa#}
.	4r	8gg#
.	.	{16aa#
.	.	16ff##}
4.g#	4.b	4.gg#
4.r	4.r	{16gg#
.	.	16aan
.	.	8.aaT
.	.	32gg#
.	.	32aa}
=45	=45	=45
2r	2r	4.bb
.	.	8aa
4e#	4cc#	4gg#
4f#	4cc#	4aa
4r	4r	8gg#
.	.	8ff#
4en	4cc#	4aa
=46	=46	=46
8d#	2r	{8b
4.r	.	8dd#
.	.	8ff#}
.	.	8bb
4e	4b	8aa
.	.	8gg#
2.r	4.b	{4gg#
.	.	8.ff#}
.	8r	.
.	.	16b
.	4r	{8.cc#T
.	.	32b
.	.	32cc#}
=47	=47	=47
1.r	4.r	4.ddn
.	8f#	8ee
.	4g#	4dd#
.	4a	4cc#
.	4f#	{8cc#
.	.	[8dd#
.	4e	8dd#}]
.	.	8ee
=48	=48	=48
2B	2f#	{4ee
.	.	4dd#T}
4r	4r	4ee
4.r	4.e	4.ee
==	==	==
*-	*-	*-
